X:1
T:Title
%%score { ( 1 3 4 ) | 2 }
L:1/8
M:4/4
K:C
V:1 treble nm="Grand Piano"
V:3 treble 
V:4 treble 
V:2 bass 
V:1
 z4 z2[Q:1/4=106] [CE]>[DF] | [EG]2 [_E^F]2 [=EG]2 [Gc]2 | [FB]6 z2 | [DF]2 [^CE]2 [DF]2 [B,FA]2 | %4
 [EG]6 z2 | [CFA]2 [D^FA]2 [DGB]2 [D=FB]2 |[M:3/4] [Ec]6 |[M:1/4] c>d |[M:4/4] e2 c2 [Dc]2 [FB]2 | %9
[M:3/4] [Ec]6 |[M:1/4] GG |[M:4/4] d6 z2 | e6 z2 | [Gd]2 [GB]2 [^Fc]2 [FA]2 |[M:3/4] G6 | %15
[M:1/4] [CE][G,DF] |[M:4/4] [G,EG]2 [Ec]2 [Ge]2 [Gc]2 | [GB]2 A4 Bc | G2 c2 [Dc]2 [FB]2 | %19
[M:3/4] [Ec]6 |] %20
V:2
 z4 z2 [C,G,]>[C,G,] | [C,C]2 [C,C]2 [C,C]2 [E,C]2 | [G,D]G,G,G, G,2 [G,B,]>[G,C] | %3
 [G,,G,]2 [G,,G,]2 [G,,G,]2 G,,2 | C,C,C,C, C,2 C,>C, | F,2 D,2 G,2 ^G,2 |[M:3/4] A,A, A,A, A,2 | %7
[M:1/4][K:treble] [A,CE]>[^G,C^F] |[M:4/4] [G,CG]2[K:bass] [G,E]2 [G,,G,]2 [G,,G,]2 | %9
[M:3/4] [C,G,]6 |[M:1/4] z2 |[M:4/4][K:treble] F[G,B,][G,B,][G,B,] [G,B,]2 z2 | %12
 G[K:bass][C,C][C,C][C,C] [C,C]2 [C,C][C,C] | [D,B,]2 [D,D]2 [D,A,]2 [D,C]2 | %14
[M:3/4] [G,B,]2 [G,B,]G, G,F, |[M:1/4] E,D, |[M:4/4] C,2 [C,G,]2 [C,C]2 [E,C]2 | %17
 [F,C]2 [F,CF]4 [^F,A,_E][F,A,E] | [G,CE]2 [G,E]2 [G,,G,]2 [G,,G,]2 |[M:3/4] [C,G,]6 |] %20
V:3
 x8 | x8 | z DDD D2 D>E | x8 | CCCC C2 [CEG]>[CE^G] | x8 |[M:3/4] CC CC C2 |[M:1/4] x2 | %8
[M:4/4] x8 |[M:3/4] x6 |[M:1/4] x2 |[M:4/4] z FFF F2 GG | z GGG G2 [Ge][Ge] | x8 |[M:3/4] z2 D4 | %15
[M:1/4] x2 |[M:4/4] x8 | x8 | x8 |[M:3/4] x6 |] %20
V:4
 x8 | x8 | x8 | x8 | x8 | x8 |[M:3/4] x6 |[M:1/4] x2 |[M:4/4] x8 |[M:3/4] x6 |[M:1/4] x2 | %11
[M:4/4] x8 | x8 | x8 |[M:3/4] z2 z B, B,2 |[M:1/4] x2 |[M:4/4] x8 | x8 | x8 |[M:3/4] x6 |] %20

